static/img/kroki/004cf703aebaab2c366b39e142b7dc3d.svg

<?xml version="1.0" encoding="us-ascii" standalone="no"?><svg xmlns="http://www.w3.org/2000/svg" xmlns:xlink="http://www.w3.org/1999/xlink" contentStyleType="text/css" height="152px" preserveAspectRatio="none" style="width:361px;height:152px;" version="1.1" viewBox="0 0 361 152" width="361px" zoomAndPan="magnify"><defs/><g><!--class azure_sql_server_managed_instance--><g id="elem_azure_sql_server_managed_instance"><rect codeLine="23" fill="#3D176E" height="39.7891" id="azure_sql_server_managed_instance" rx="2.5" ry="2.5" style="stroke:#000D19;stroke-width:0.5;" width="347" x="7" y="7"/><ellipse cx="22" cy="26.8945" fill="#ADD1B2" rx="11" ry="11" style="stroke:#181818;stroke-width:1.0;"/><path d="M24.9688,32.5352 Q24.3906,32.832 23.75,32.9727 Q23.1094,33.1289 22.4063,33.1289 Q19.9063,33.1289 18.5781,31.4883 Q17.2656,29.832 17.2656,26.707 Q17.2656,23.582 18.5781,21.9258 Q19.9063,20.2695 22.4063,20.2695 Q23.1094,20.2695 23.75,20.4258 Q24.4063,20.582 24.9688,20.8789 L24.9688,23.5977 Q24.3438,23.0195 23.75,22.7539 Q23.1563,22.4727 22.5313,22.4727 Q21.1875,22.4727 20.5,23.5508 Q19.8125,24.6133 19.8125,26.707 Q19.8125,28.8008 20.5,29.8789 Q21.1875,30.9414 22.5313,30.9414 Q23.1563,30.9414 23.75,30.6758 Q24.3438,30.3945 24.9688,29.8164 L24.9688,32.5352 Z " fill="#000000"/><text fill="#D9B8FF" font-family="Helvetica" font-size="17" lengthAdjust="spacing" textLength="305" x="41" y="32.7798">azure_sql_server_managed_instance</text></g><!--class azure_sql_server_trust_group--><g id="elem_azure_sql_server_trust_group"><rect codeLine="26" fill="#3D176E" height="39.7891" id="azure_sql_server_trust_group" rx="2.5" ry="2.5" style="stroke:#000D19;stroke-width:0.5;" width="287" x="37" y="106.79"/><ellipse cx="52" cy="126.6845" fill="#ADD1B2" rx="11" ry="11" style="stroke:#181818;stroke-width:1.0;"/><path d="M54.9688,132.3252 Q54.3906,132.622 53.75,132.7627 Q53.1094,132.9189 52.4063,132.9189 Q49.9063,132.9189 48.5781,131.2783 Q47.2656,129.622 47.2656,126.497 Q47.2656,123.372 48.5781,121.7158 Q49.9063,120.0595 52.4063,120.0595 Q53.1094,120.0595 53.75,120.2158 Q54.4063,120.372 54.9688,120.6689 L54.9688,123.3877 Q54.3438,122.8095 53.75,122.5439 Q53.1563,122.2627 52.5313,122.2627 Q51.1875,122.2627 50.5,123.3408 Q49.8125,124.4033 49.8125,126.497 Q49.8125,128.5908 50.5,129.6689 Q51.1875,130.7314 52.5313,130.7314 Q53.1563,130.7314 53.75,130.4658 Q54.3438,130.1845 54.9688,129.6064 L54.9688,132.3252 Z " fill="#000000"/><text fill="#D9B8FF" font-family="Helvetica" font-size="17" lengthAdjust="spacing" textLength="245" x="71" y="132.5698">azure_sql_server_trust_group</text></g><!--link azure_sql_server_managed_instance to azure_sql_server_trust_group--><g id="link_azure_sql_server_managed_instance_azure_sql_server_trust_group"><path codeLine="29" d="M180.5,47.22 C180.5,64.36 180.5,83.27 180.5,100.41 " fill="none" id="azure_sql_server_managed_instance-to-azure_sql_server_trust_group" style="stroke:#1A83AF;stroke-width:2.0;"/><polygon fill="#1A83AF" points="180.5,106.41,184.5,97.41,180.5,101.41,176.5,97.41,180.5,106.41" style="stroke:#1A83AF;stroke-width:2.0;"/></g><!--SRC=[XT31Ji9040RWUvzY4yuar4Q1Yqab8NeXHhmPqmpTMTZGxjQPAGICxwuLDKihSDtvyiy_kx8Q5PQLx5I9vGA98rvRLm51gL8YlvtumfFg6GCc6RQ7K-_a8fX1YUeUYmsApQ4jdbSsNpjaLbV1w0xozP9yxVGXNWWSVutGIQ0c1J2d8cGNjM1GHeyN8sFQiXtQItGylC4EywIHViXWCD3nk4qkhZfxzv-OspsgEFoqcHVirEoi-5PdMpOYADavz7T-ikCZQ6tTKbq7Rq-7JkIGZjxdAz1-ssW31OThM93Gowx2IUSg78-q6VwB7qxXA6- -Ji6-9ipuhSWOQOEKbU1WYJgpZWLSZkezYZvEOQ6Q9MlYguEx7DT_wSNfA4cdh_tRiu7H9m00]--></g></svg>

<svg xmlns="http://www.w3.org/2000/svg" width="361" height="152" viewBox="0 0 361 152"><rect width="347" height="39.789" x="7" y="7" fill="#3D176E" rx="2.5" ry="2.5" style="stroke:#000d19;stroke-width:.5"/><circle cx="22" cy="26.895" r="11" fill="#ADD1B2" style="stroke:#181818;stroke-width:1"/><path d="M24.969 32.535q-.578.297-1.219.438-.64.156-1.344.156-2.5 0-3.828-1.64-1.312-1.657-1.312-4.782t1.312-4.781q1.328-1.656 3.828-1.656.703 0 1.344.156.656.156 1.219.453v2.719q-.625-.578-1.219-.844-.594-.281-1.219-.281-1.343 0-2.031 1.078-.687 1.062-.687 3.156t.687 3.172q.688 1.062 2.031 1.062.625 0 1.219-.265.594-.281 1.219-.86z"/><text x="41" y="32.78" fill="#D9B8FF" font-family="Helvetica" font-size="17" textLength="305">azure_sql_server_managed_instance</text><rect width="287" height="39.789" x="37" y="106.79" fill="#3D176E" rx="2.5" ry="2.5" style="stroke:#000d19;stroke-width:.5"/><circle cx="52" cy="126.684" r="11" fill="#ADD1B2" style="stroke:#181818;stroke-width:1"/><path d="M54.969 132.325q-.578.297-1.219.438-.64.156-1.344.156-2.5 0-3.828-1.64-1.312-1.657-1.312-4.782t1.312-4.781q1.328-1.656 3.828-1.656.703 0 1.344.156.656.156 1.219.453v2.719q-.625-.579-1.219-.844-.594-.281-1.219-.281-1.343 0-2.031 1.078-.687 1.062-.687 3.156t.687 3.172q.688 1.062 2.031 1.062.625 0 1.219-.265.594-.281 1.219-.86z"/><text x="71" y="132.57" fill="#D9B8FF" font-family="Helvetica" font-size="17" textLength="245">azure_sql_server_trust_group</text><path fill="none" d="M180.5 47.22v53.19" style="stroke:#1a83af;stroke-width:2"/><path fill="#1A83AF" d="m180.5 106.41 4-9-4 4-4-4z" style="stroke:#1a83af;stroke-width:2"/></svg>
